!!!OTL: I'm Tired, I'm Going to Rest
!!!OTL@@DE: Guter Mond, du gehst so stille
!!!ARE: Deutschland
**kern
*clefG2
*k[]
*M4/4
*MM80
{8g
8f
=1
4e
4e
(8e
8f)
(8g
8a)
=2
(8g
8f)
4d}
4r
{8g
8f
=3
4e
4e
(8d
8c)
(8d
8e)
=4
2c}
4r
{8g
8f
=5
4e
4e
(8e
8f)
(8g
8a)
=6
(8g
8f)
4d}
4r
{8g
8f
=7
4e
4e
(8d
8c)
(8d
8e)
=8
2c}
4r
{8d
8e
=9
4f
4d}
4r
{8e
8f
=10
4g
4e}
4r
{8e
8e
=11
4.a
8g
(8a
8g)
(8f
8e)
=12
(4e
4d)}
4r
{8g
8f
=13
4e
4e
(8e
8f)
(8g
8a)
=14
(8g
8f)
4r
{8g
8f
=15
4e
4e
(8d
8c)
(8d
8e)
=16
2c}
2r
==
*-